public/icons/discord_lg_icon.svg

<svg width="160" height="160" viewBox="0 0 160 160" fill="none" xmlns="http://www.w3.org/2000/svg">
<rect width="160" height="160" rx="8" fill="#F7F7FC"/>
<path d="M119.043 53.6019C110.082 46.631 95.9052 45.4496 95.2973 45.4082C94.8355 45.3715 94.3733 45.4745 93.9747 45.7029C93.5762 45.9314 93.261 46.2739 93.0729 46.6832C92.8025 47.2711 92.5731 47.8759 92.3863 48.4934C98.3142 49.4616 105.595 51.4088 112.183 55.3599C112.434 55.5106 112.652 55.7077 112.825 55.9399C112.997 56.1721 113.121 56.4348 113.188 56.7131C113.255 56.9914 113.265 57.2798 113.218 57.5619C113.17 57.8439 113.065 58.1141 112.909 58.3569C112.753 58.5998 112.549 58.8106 112.309 58.9773C112.068 59.144 111.796 59.2633 111.508 59.3285C111.221 59.3936 110.922 59.4033 110.63 59.357C110.338 59.3107 110.059 59.2093 109.807 59.0586C98.483 52.2639 84.3398 51.9266 81.6134 51.9266C78.8892 51.9266 64.737 52.2661 53.4193 59.0564C53.168 59.2071 52.8884 59.3085 52.5966 59.3548C52.3047 59.4012 52.0063 59.3914 51.7183 59.3263C51.1367 59.1947 50.633 58.8452 50.318 58.3548C50.003 57.8643 49.9026 57.273 50.0388 56.7109C50.1749 56.1489 50.5365 55.6621 51.0441 55.3577C57.6316 51.4175 64.9126 49.4616 70.8405 48.5021C70.4983 47.4229 70.1876 46.7419 70.1651 46.6832C69.9778 46.271 69.6611 45.9262 69.26 45.6974C68.8588 45.4687 68.3934 45.3675 67.9295 45.4082C67.3216 45.4517 53.1446 46.631 44.0603 53.6955C39.3211 57.9338 29.8315 82.7172 29.8315 104.144C29.8315 104.526 29.9374 104.892 30.131 105.223C36.6735 116.341 54.536 119.245 58.6065 119.373H58.6763C59.0315 119.374 59.3819 119.294 59.6989 119.139C60.0158 118.984 60.2903 118.759 60.4999 118.481L64.6132 113.007C53.5071 110.238 47.8336 105.529 47.5094 105.249C47.0616 104.867 46.7891 104.329 46.752 103.752C46.7148 103.176 46.916 102.609 47.3113 102.177C47.7066 101.744 48.2636 101.481 48.8597 101.445C49.4559 101.409 50.0424 101.603 50.4902 101.985C50.6208 102.105 61.0695 110.671 81.6134 110.671C102.191 110.671 112.64 102.07 112.746 101.985C113.195 101.606 113.781 101.414 114.377 101.453C114.972 101.491 115.527 101.756 115.92 102.19C116.115 102.403 116.264 102.652 116.359 102.921C116.454 103.191 116.493 103.476 116.474 103.76C116.456 104.044 116.379 104.322 116.249 104.577C116.119 104.833 115.939 105.061 115.717 105.249C115.393 105.529 109.72 110.238 98.6136 113.007L102.729 118.481C102.938 118.758 103.213 118.983 103.529 119.138C103.846 119.293 104.196 119.374 104.55 119.373H104.618C108.693 119.245 126.553 116.338 133.098 105.223C133.289 104.892 133.395 104.526 133.395 104.144C133.395 82.7172 123.906 57.9359 119.043 53.6019ZM66.9794 95.4407C62.6252 95.4407 59.0995 91.5462 59.0995 86.7379C59.0995 81.9296 62.6252 78.0351 66.9794 78.0351C71.3336 78.0351 74.8592 81.9296 74.8592 86.7379C74.8592 91.5462 71.3336 95.4407 66.9794 95.4407ZM96.2474 95.4407C91.8932 95.4407 88.3675 91.5462 88.3675 86.7379C88.3675 81.9296 91.8932 78.0351 96.2474 78.0351C100.602 78.0351 104.127 81.9296 104.127 86.7379C104.127 91.5462 100.602 95.4407 96.2474 95.4407Z" fill="#121314"/>
</svg>

<svg width="160" height="160" fill="none" xmlns="http://www.w3.org/2000/svg"><rect width="160" height="160" rx="8" fill="#F7F7FC"/><path d="M119.043 53.602c-8.961-6.971-23.138-8.152-23.746-8.194a2.297 2.297 0 0 0-1.322.295 2.185 2.185 0 0 0-.902.98c-.27.588-.5 1.193-.687 1.81 5.928.969 13.209 2.916 19.797 6.867.251.15.469.348.642.58a2.13 2.13 0 0 1 .393 1.622 2.133 2.133 0 0 1-.309.795 2.2 2.2 0 0 1-.6.62 2.301 2.301 0 0 1-1.679.38 2.306 2.306 0 0 1-.823-.298c-11.324-6.795-25.467-7.132-28.194-7.132-2.724 0-16.876.34-28.194 7.13a2.328 2.328 0 0 1-1.701.27 2.25 2.25 0 0 1-1.4-.972 2.114 2.114 0 0 1-.28-1.644 2.181 2.181 0 0 1 1.006-1.353c6.588-3.94 13.869-5.896 19.797-6.856-.343-1.08-.653-1.76-.676-1.819a2.173 2.173 0 0 0-.905-.986 2.286 2.286 0 0 0-1.33-.289c-.608.044-14.785 1.223-23.87 8.288-4.739 4.238-14.229 29.021-14.229 50.448 0 .382.106.748.3 1.079 6.542 11.118 24.405 14.022 28.475 14.15h.07c.355.001.706-.079 1.023-.234.317-.155.591-.38.8-.658l4.114-5.474c-11.106-2.769-16.78-7.478-17.104-7.758a2.15 2.15 0 0 1-.757-1.497 2.129 2.129 0 0 1 .56-1.575 2.282 2.282 0 0 1 1.548-.732 2.3 2.3 0 0 1 1.63.54c.13.12 10.58 8.686 31.123 8.686 20.578 0 31.027-8.601 31.133-8.686a2.298 2.298 0 0 1 1.631-.532c.595.038 1.15.303 1.543.737a2.103 2.103 0 0 1 .329 2.387c-.13.256-.31.484-.532.672-.324.28-5.997 4.989-17.103 7.758l4.115 5.474c.209.277.484.502.8.657.317.155.667.236 1.021.235h.068c4.075-.128 21.935-3.035 28.48-14.15.191-.331.297-.697.297-1.079 0-21.427-9.489-46.208-14.352-50.542ZM66.979 95.44c-4.354 0-7.88-3.895-7.88-8.703s3.526-8.703 7.88-8.703c4.355 0 7.88 3.895 7.88 8.703s-3.525 8.703-7.88 8.703Zm29.268 0c-4.354 0-7.88-3.895-7.88-8.703s3.526-8.703 7.88-8.703c4.355 0 7.88 3.895 7.88 8.703s-3.525 8.703-7.88 8.703Z" fill="#121314"/></svg>
